static/images/mobile/copyright/wikivoyage-wordmark-en.svg

<?xml version="1.0" encoding="UTF-8"?>
<svg viewBox="0 0 105 18" version="1.1" xmlns="http://www.w3.org/2000/svg" xmlns:xlink="http://www.w3.org/1999/xlink">
    <title>wiki voyage</title>
            <g id="wiki-voyage" stroke="none"  fill-rule="evenodd">

                <path d="M32.2324219,4.9140625 L33.9462891,4.9140625 L30.3779297,13.140625 L29.8769531,13.140625 L27.4775391,7.50683594 L25.1220703,13.140625 L24.6035156,13.140625 L21,4.9140625 L22.7138672,4.9140625 L24.8320312,9.81835938 L26.8886719,4.9140625 L28.0751953,4.9140625 L30.1230469,9.81835938 L32.2324219,4.9140625 Z M35.90625,1.51269531 C36.1699232,1.51269531 36.3955069,1.60351472 36.5830078,1.78515625 C36.7705088,1.96679778 36.8642578,2.18945181 36.8642578,2.453125 C36.8642578,2.71093879 36.7705088,2.93359281 36.5830078,3.12109375 C36.3955069,3.30859469 36.1699232,3.40234375 35.90625,3.40234375 C35.660155,3.40234375 35.4433603,3.30712986 35.2558594,3.11669922 C35.0683584,2.92626858 34.9746094,2.70507938 34.9746094,2.453125 C34.9746094,2.20703002 35.0683584,1.98877048 35.2558594,1.79833984 C35.4433603,1.6079092 35.660155,1.51269531 35.90625,1.51269531 Z M35.1152344,4.9140625 L36.7148438,4.9140625 L36.7148438,13 L35.1152344,13 L35.1152344,4.9140625 Z M44.2822266,4.9140625 L46.1894531,4.9140625 L42.7353516,8.87792969 L46.8925781,13 L44.7480469,13 L40.6962891,8.87792969 L44.2822266,4.9140625 Z M39.0263672,0.721679688 L40.6259766,0.721679688 L40.6259766,13 L39.0263672,13 L39.0263672,0.721679688 Z M48.4746094,1.51269531 C48.7382826,1.51269531 48.9638662,1.60351472 49.1513672,1.78515625 C49.3388681,1.96679778 49.4326172,2.18945181 49.4326172,2.453125 C49.4326172,2.71093879 49.3388681,2.93359281 49.1513672,3.12109375 C48.9638662,3.30859469 48.7382826,3.40234375 48.4746094,3.40234375 C48.2285144,3.40234375 48.0117197,3.30712986 47.8242188,3.11669922 C47.6367178,2.92626858 47.5429688,2.70507938 47.5429688,2.453125 C47.5429688,2.20703002 47.6367178,1.98877048 47.8242188,1.79833984 C48.0117197,1.6079092 48.2285144,1.51269531 48.4746094,1.51269531 Z M47.6835938,4.9140625 L49.2832031,4.9140625 L49.2832031,13 L47.6835938,13 L47.6835938,4.9140625 Z M61.5439453,4.9140625 L63.2753906,4.9140625 L59.7070312,13.140625 L59.1708984,13.140625 L55.5146484,4.9140625 L57.2636719,4.9140625 L59.4433594,9.88867188 L61.5439453,4.9140625 Z M68.3466797,4.89648438 C69.5771546,4.89648438 70.5996053,5.29345306 71.4140625,6.08740234 C72.2285197,6.88135163 72.6357422,7.87890024 72.6357422,9.08007812 C72.6357422,10.2460996 72.2226604,11.2143516 71.3964844,11.9848633 C70.5703084,12.7553749 69.5302797,13.140625 68.2763672,13.140625 C67.0634705,13.140625 66.0498088,12.7495156 65.2353516,11.9672852 C64.4208944,11.1850547 64.0136719,10.2080137 64.0136719,9.03613281 C64.0136719,7.85253314 64.4252889,6.86670316 65.2485352,6.07861328 C66.0717815,5.2905234 67.104486,4.89648438 68.3466797,4.89648438 Z M68.2587891,6.33789062 C67.4912071,6.33789062 66.8613306,6.58984123 66.3691406,7.09375 C65.8769507,7.59765877 65.6308594,8.23925392 65.6308594,9.01855469 C65.6308594,9.79199605 65.88281,10.4233374 66.3867188,10.9125977 C66.8906275,11.4018579 67.538082,11.6464844 68.3291016,11.6464844 C69.1142617,11.6464844 69.7573217,11.3989283 70.2583008,10.9038086 C70.7592798,10.4086889 71.0097656,9.77441793 71.0097656,9.00097656 C71.0097656,8.2333946 70.749026,7.59765877 70.2275391,7.09375 C69.7060521,6.58984123 69.0498086,6.33789062 68.2587891,6.33789062 Z M79.359375,4.9140625 L81.1611328,4.9140625 L75.4394531,17.1220703 L73.6552734,17.1220703 L76.40625,11.2685547 L73.2773438,4.9140625 L75.0966797,4.9140625 L77.2763672,9.47558594 L79.359375,4.9140625 Z M87.375,8.13964844 L87.375,11.5761719 C87.375,11.8515639 87.4687491,11.9892578 87.65625,11.9892578 C87.8496103,11.9892578 88.1513651,11.8457046 88.5615234,11.5585938 L88.5615234,12.5341797 C88.1982404,12.7685559 87.9067394,12.9282222 87.6870117,13.0131836 C87.4672841,13.098145 87.2373059,13.140625 86.9970703,13.140625 C86.31152,13.140625 85.9072272,12.8710964 85.7841797,12.3320312 C85.1044888,12.8593776 84.3808632,13.1230469 83.6132812,13.1230469 C83.0507784,13.1230469 82.5820331,12.9370136 82.2070312,12.5649414 C81.8320294,12.1928692 81.6445312,11.7255888 81.6445312,11.1630859 C81.6445312,10.6533178 81.8276349,10.1977559 82.1938477,9.79638672 C82.5600604,9.39501752 83.0800748,9.07714961 83.7539062,8.84277344 L85.8017578,8.13964844 L85.8017578,7.70898438 C85.8017578,6.73632326 85.3154346,6.25 84.3427734,6.25 C83.4697222,6.25 82.6201213,6.70116736 81.7939453,7.60351562 L81.7939453,5.85449219 C82.4150422,5.12206665 83.3085879,4.75585938 84.4746094,4.75585938 C85.3476606,4.75585938 86.0478489,4.98437271 86.5751953,5.44140625 C86.7509774,5.58789136 86.909179,5.78271363 87.0498047,6.02587891 C87.1904304,6.26904418 87.279785,6.51220582 87.3178711,6.75537109 C87.3559572,6.99853637 87.375,7.45995754 87.375,8.13964844 Z M85.8017578,11.4003906 L85.8017578,9.00097656 L84.7294922,9.4140625 C84.1845676,9.63086046 83.7993175,9.84912 83.5737305,10.0688477 C83.3481434,10.2885753 83.2353516,10.5624984 83.2353516,10.890625 C83.2353516,11.224611 83.3422841,11.4970693 83.5561523,11.7080078 C83.7700206,11.9189464 84.0468733,12.0244141 84.3867188,12.0244141 C84.8964869,12.0244141 85.3681619,11.8164083 85.8017578,11.4003906 Z M89.5634766,7.70898438 C89.5634766,6.84765194 89.8784148,6.16650641 90.5083008,5.66552734 C91.1381867,5.16454828 91.9980414,4.9140625 93.0878906,4.9140625 L96.4189453,4.9140625 L96.4189453,6.16210938 L94.7841797,6.16210938 C95.1005875,6.48437661 95.3203119,6.77734243 95.4433594,7.04101562 C95.5664069,7.30468882 95.6279297,7.60644361 95.6279297,7.94628906 C95.6279297,8.36816617 95.5078137,8.78271281 95.2675781,9.18994141 C95.0273425,9.59717 94.7182636,9.9091786 94.340332,10.1259766 C93.9624005,10.3427745 93.3427777,10.5156244 92.4814453,10.6445312 C91.8779267,10.7324223 91.5761719,10.940428 91.5761719,11.2685547 C91.5761719,11.4560556 91.6889637,11.6098627 91.9145508,11.7299805 C92.1401378,11.8500983 92.5488252,11.9746087 93.140625,12.1035156 C94.1308643,12.3203136 94.768065,12.4902338 95.0522461,12.6132812 C95.3364272,12.7363287 95.5927723,12.9121082 95.8212891,13.140625 C96.2080097,13.5273457 96.4013672,14.0136689 96.4013672,14.5996094 C96.4013672,15.3671913 96.060062,15.9794899 95.3774414,16.4365234 C94.6948208,16.893557 93.7822323,17.1220703 92.6396484,17.1220703 C91.4853458,17.1220703 90.5639683,16.8920921 89.8754883,16.4321289 C89.1870083,15.9721657 88.8427734,15.3554726 88.8427734,14.5820312 C88.8427734,13.4863226 89.5195245,12.780275 90.8730469,12.4638672 C90.3339817,12.1181623 90.0644531,11.7753923 90.0644531,11.4355469 C90.0644531,11.1777331 90.1801746,10.9433604 90.4116211,10.7324219 C90.6430676,10.5214833 90.9550762,10.3662114 91.3476562,10.2666016 C90.1581972,9.73925518 89.5634766,8.88672464 89.5634766,7.70898438 Z M92.5693359,6.30273438 C92.13574,6.30273438 91.7666031,6.44921729 91.4619141,6.7421875 C91.157225,7.03515771 91.0048828,7.3867167 91.0048828,7.796875 C91.0048828,8.21289271 91.1542954,8.55712754 91.453125,8.82958984 C91.7519546,9.10205214 92.1298805,9.23828125 92.5869141,9.23828125 C93.0380882,9.23828125 93.4145493,9.09912249 93.7163086,8.82080078 C94.0180679,8.54247908 94.1689453,8.19531458 94.1689453,7.77929688 C94.1689453,7.35741977 94.0166031,7.00586078 93.7119141,6.72460938 C93.407225,6.44335797 93.0263695,6.30273438 92.5693359,6.30273438 Z M92.1914062,13.3779297 C91.6523411,13.3779297 91.2114275,13.4921864 90.8686523,13.7207031 C90.5258772,13.9492199 90.3544922,14.2421857 90.3544922,14.5996094 C90.3544922,15.4316448 91.1044847,15.8476562 92.6044922,15.8476562 C93.3134801,15.8476562 93.862791,15.7436534 94.2524414,15.5356445 C94.6420918,15.3276357 94.8369141,15.033205 94.8369141,14.6523438 C94.8369141,14.2773419 94.5908228,13.9711926 94.0986328,13.7338867 C93.6064429,13.4965808 92.970707,13.3779297 92.1914062,13.3779297 Z M104.548828,9.09765625 L98.8623047,9.09765625 C98.9033205,9.87109762 99.1625953,10.4863258 99.6401367,10.9433594 C100.117678,11.4003929 100.734371,11.6289062 101.490234,11.6289062 C102.544927,11.6289062 103.517574,11.3007845 104.408203,10.6445312 L104.408203,12.2089844 C103.916013,12.537111 103.428225,12.7714837 102.944824,12.9121094 C102.461423,13.0527351 101.894535,13.1230469 101.244141,13.1230469 C100.353511,13.1230469 99.6328153,12.9384784 99.0820312,12.5693359 C98.5312472,12.2001935 98.0903337,11.7036164 97.7592773,11.0795898 C97.428221,10.4555633 97.2626953,9.73340254 97.2626953,8.91308594 C97.2626953,7.68261104 97.6113246,6.68213276 98.3085938,5.91162109 C99.0058629,5.14110943 99.9111272,4.75585938 101.024414,4.75585938 C102.096685,4.75585938 102.952145,5.13085563 103.59082,5.88085938 C104.229495,6.63086312 104.548828,7.63573589 104.548828,8.89550781 L104.548828,9.09765625 Z M98.8974609,8.13964844 L102.966797,8.13964844 C102.925781,7.50097337 102.735353,7.00879079 102.395508,6.66308594 C102.055662,6.31738108 101.598636,6.14453125 101.024414,6.14453125 C100.450192,6.14453125 99.9799823,6.31738108 99.6137695,6.66308594 C99.2475568,7.00879079 99.0087896,7.50097337 98.8974609,8.13964844 Z" fill="#54595D"></path>
                <path d="M0.0778636364,5.13047077 L7.35422727,4.72865538 C7.38695455,4.78459385 7.41968182,4.84025538 7.45240909,4.89619385 C6.4515,6.23262462 6.12095455,7.74268615 6.3165,9.57259385 C4.10959091,8.09160923 2.05486364,6.71280923 0.000136363636,5.33400923 C0.0260454545,5.26616308 0.0519545455,5.19831692 0.0778636364,5.13047077 Z M8.75648182,11.7936831 C10.2927545,11.95596 11.7011182,11.6433138 12.9158455,10.6114985 L13.0903909,10.7239292 C12.9540273,13.0869138 12.8176636,15.4496215 12.6813,17.8123292 C12.6229364,17.8286677 12.5645727,17.8450062 12.5062091,17.8613446 L8.67548182,11.9844831 C8.70248182,11.9207908 8.72948182,11.8573754 8.75648182,11.7936831 Z M14.0373,7.56670154 C13.2142091,5.85504 12.0777545,4.67673231 10.3942091,4.05144 C10.3843909,3.98387077 10.3743,3.91630154 10.3644818,3.84873231 C12.7012091,2.65824 15.0376636,1.46747077 17.3743909,0.276978462 C17.4286636,0.325716923 17.4829364,0.374732308 17.5372091,0.423747692 C16.3707545,2.80473231 15.2040273,5.18571692 14.0373,7.56670154 Z" id="Combined-Shape" fill="#54595D" opacity="0.5"></path>
            </g>

</svg>

<?xml version="1.0" encoding="UTF-8"?><svg viewBox="0 0 105 18" xmlns="http://www.w3.org/2000/svg"><title>wiki voyage</title><g id="wiki-voyage" fill-rule="evenodd" fill="#54595D"><path d="M32.232 4.914h1.714l-3.568 8.227h-.501l-2.4-5.634-2.355 5.634h-.518L21 4.914h1.714l2.118 4.904 2.057-4.904h1.186l2.048 4.904 2.11-4.904zm3.674-3.401c.264 0 .49.09.677.272a.894.894 0 0 1 .281.668c0 .258-.093.48-.281.668a.923.923 0 0 1-.677.281.887.887 0 0 1-.65-.285.917.917 0 0 1-.281-.664c0-.246.093-.464.28-.655a.887.887 0 0 1 .651-.285zm-.79 3.401h1.599V13h-1.6V4.914zm9.166 0h1.907l-3.454 3.964L46.893 13h-2.145l-4.052-4.122 3.586-3.964zM39.026.722h1.6V13h-1.6V.722zm9.449.79c.263 0 .489.092.676.273a.894.894 0 0 1 .282.668c0 .258-.094.48-.282.668a.923.923 0 0 1-.676.281.887.887 0 0 1-.65-.285.917.917 0 0 1-.282-.664c0-.246.094-.464.281-.655a.887.887 0 0 1 .65-.285zm-.791 3.402h1.6V13h-1.6V4.914zm13.86 0h1.731l-3.568 8.227h-.536l-3.656-8.227h1.749l2.18 4.975 2.1-4.975zm6.803-.018c1.23 0 2.253.397 3.067 1.191.815.794 1.222 1.792 1.222 2.993 0 1.166-.413 2.134-1.24 2.905-.826.77-1.866 1.156-3.12 1.156-1.213 0-2.226-.391-3.04-1.174-.815-.782-1.222-1.759-1.222-2.93 0-1.184.411-2.17 1.235-2.958.823-.788 1.855-1.183 3.098-1.183zm-.088 1.442c-.768 0-1.398.252-1.89.756s-.738 1.145-.738 1.925c0 .773.252 1.404.756 1.894.504.489 1.151.733 1.942.733.785 0 1.428-.247 1.93-.742.5-.495.75-1.13.75-1.903 0-.768-.26-1.403-.781-1.907-.522-.504-1.178-.756-1.97-.756zm11.1-1.424h1.802L75.44 17.122h-1.784l2.751-5.853-3.129-6.355h1.82l2.18 4.562 2.082-4.562zm8.016 3.226v3.436c0 .276.094.413.281.413.194 0 .495-.143.906-.43v.975c-.364.235-.655.394-.875.48-.22.084-.45.127-.69.127-.685 0-1.09-.27-1.213-.809-.68.527-1.403.791-2.17.791-.563 0-1.032-.186-1.407-.558-.375-.372-.562-.84-.562-1.402 0-.51.183-.965.549-1.367.366-.401.886-.719 1.56-.953l2.048-.703v-.431c0-.973-.487-1.459-1.46-1.459-.872 0-1.722.451-2.548 1.354v-1.75c.621-.732 1.515-1.098 2.68-1.098.874 0 1.574.228 2.101.685.176.147.334.342.475.585.14.243.23.486.268.73.038.243.057.704.057 1.384zm-1.573 3.26V9.001l-1.073.413c-.544.217-.93.435-1.155.655a1.1 1.1 0 0 0-.339.822c0 .334.107.606.321.817.214.21.49.316.83.316.51 0 .982-.208 1.416-.624zm3.761-3.691c0-.861.315-1.542.945-2.043.63-.501 1.49-.752 2.58-.752h3.33v1.248h-1.634c.317.322.536.615.66.879.122.264.184.565.184.905 0 .422-.12.837-.36 1.244-.24.407-.55.72-.928.936-.378.217-.997.39-1.859.519-.603.087-.905.295-.905.624 0 .187.113.34.339.461.225.12.634.245 1.226.374.99.216 1.627.386 1.911.51.284.122.54.298.77.527.386.386.58.873.58 1.459 0 .767-.342 1.38-1.025 1.837-.682.457-1.595.685-2.737.685-1.155 0-2.076-.23-2.765-.69-.688-.46-1.032-1.077-1.032-1.85 0-1.096.677-1.802 2.03-2.118-.539-.346-.809-.689-.809-1.028 0-.258.116-.493.348-.704.231-.21.543-.366.936-.465-1.19-.528-1.785-1.38-1.785-2.558zm3.006-1.406a1.54 1.54 0 0 0-1.107.44 1.411 1.411 0 0 0-.457 1.054c0 .416.15.76.448 1.033.299.272.677.408 1.134.408.451 0 .828-.139 1.13-.417.301-.279.452-.626.452-1.042 0-.422-.152-.773-.457-1.054-.305-.282-.686-.422-1.143-.422zm-.378 7.075c-.539 0-.98.114-1.322.343-.343.228-.515.521-.515.879 0 .832.75 1.248 2.25 1.248.71 0 1.259-.104 1.648-.312.39-.208.585-.503.585-.884 0-.375-.246-.68-.738-.918-.493-.237-1.128-.356-1.908-.356zm12.358-4.28h-5.687c.041.773.3 1.388.778 1.845.478.457 1.094.686 1.85.686 1.055 0 2.028-.328 2.918-.984v1.564a5.34 5.34 0 0 1-1.463.703c-.484.14-1.05.211-1.7.211-.891 0-1.612-.185-2.163-.554a4.028 4.028 0 0 1-1.323-1.49c-.33-.623-.496-1.346-.496-2.166 0-1.23.348-2.23 1.046-3.001.697-.77 1.602-1.156 2.715-1.156 1.073 0 1.928.375 2.567 1.125.638.75.958 1.755.958 3.015v.202zm-5.652-.958h4.07c-.041-.639-.232-1.131-.571-1.477-.34-.346-.797-.518-1.372-.518-.574 0-1.044.172-1.41.518-.366.346-.605.838-.717 1.477z"/><path d="M.078 5.13l7.276-.401.098.167c-1 1.337-1.331 2.847-1.136 4.677L0 5.334l.078-.204zm8.678 6.664c1.537.162 2.945-.15 4.16-1.183l.174.113-.409 7.088-.175.05-3.83-5.878.08-.19zm5.281-4.227c-.823-1.712-1.96-2.89-3.643-3.516l-.03-.202 7.01-3.572.163.147-3.5 7.143z" id="Combined-Shape" opacity=".5"/></g></svg>
